build/assets/img/svg/icon-support.svg

<svg width="24" height="24" viewBox="0 0 24 24" fill="none" xmlns="http://www.w3.org/2000/svg">
<g clip-path="url(#clip0)">
<path d="M20.2104 9.12605V8.20336C20.2104 5.99496 19.4289 3.94286 18.012 2.42017C16.5599 0.857143 14.5633 0 12.3852 0H11.6238C9.44566 0 7.44902 0.857143 5.99692 2.42017C4.58012 3.94286 3.7986 5.99496 3.7986 8.20336V9.12605C2.07928 9.24202 0.712891 10.6739 0.712891 12.4235V13.8655C0.712891 15.6857 2.19524 17.1681 4.01541 17.1681H5.87592C6.20869 17.1681 6.48096 16.8958 6.48096 16.563V9.72101C6.48096 9.38824 6.20869 9.11597 5.87592 9.11597H5.00869V8.20336C5.00869 4.21513 7.85239 1.21008 11.6188 1.21008H12.3801C16.1515 1.21008 18.9902 4.21513 18.9902 8.20336V9.11597H18.123C17.7902 9.11597 17.5179 9.38824 17.5179 9.72101V16.558C17.5179 16.8908 17.7902 17.163 18.123 17.163H18.97C18.723 20.3193 16.5499 21.0504 15.5415 21.2168C15.2642 20.3647 14.4625 19.7496 13.5196 19.7496H12.007C10.8373 19.7496 9.88432 20.7025 9.88432 21.8723C9.88432 23.042 10.8373 24 12.007 24H13.5247C14.5028 24 15.3247 23.3345 15.5717 22.437C16.0658 22.3664 16.8473 22.1899 17.6238 21.7361C18.7179 21.0958 20.0137 19.7899 20.1852 17.158C21.9146 17.0521 23.286 15.6151 23.286 13.8605V12.4185C23.291 10.674 21.9297 9.23697 20.2104 9.12605ZM5.28096 15.9529H4.0255C2.87087 15.9529 1.93306 15.0151 1.93306 13.8605V12.4185C1.93306 11.2639 2.87087 10.3261 4.0255 10.3261H5.28096V15.9529ZM13.5247 22.7899H12.007C11.5028 22.7899 11.0944 22.3815 11.0944 21.8773C11.0944 21.3731 11.5028 20.9647 12.007 20.9647H13.5247C14.0289 20.9647 14.4373 21.3731 14.4373 21.8773C14.4373 22.3815 14.0289 22.7899 13.5247 22.7899ZM22.081 13.8605C22.081 15.0151 21.1431 15.9529 19.9885 15.9529H18.7331V10.3261H19.9885C21.1431 10.3261 22.081 11.2639 22.081 12.4185V13.8605Z" fill="#0A3D76"/>
</g>
<defs>
<clipPath id="clip0">
<rect width="24" height="24" fill="white"/>
</clipPath>
</defs>
</svg>

<svg width="24" height="24" fill="none" xmlns="http://www.w3.org/2000/svg"><g clip-path="url(#clip0)"><path d="M20.21 9.126v-.923c0-2.208-.781-4.26-2.198-5.783C16.56.857 14.563 0 12.385 0h-.761C9.446 0 7.449.857 5.997 2.42 4.58 3.943 3.799 5.995 3.799 8.203v.923a3.311 3.311 0 00-3.086 3.298v1.442a3.307 3.307 0 003.302 3.302h1.86a.607.607 0 00.606-.605V9.721a.607.607 0 00-.605-.605h-.867v-.913c0-3.988 2.843-6.993 6.61-6.993h.761c3.771 0 6.61 3.005 6.61 6.993v.913h-.867a.607.607 0 00-.605.605v6.837c0 .333.272.605.605.605h.847c-.247 3.156-2.42 3.887-3.428 4.054a2.128 2.128 0 00-2.022-1.467h-1.513c-1.17 0-2.123.953-2.123 2.122A2.13 2.13 0 0012.007 24h1.518c.978 0 1.8-.666 2.047-1.563a5.723 5.723 0 002.052-.7c1.094-.641 2.39-1.947 2.561-4.579a3.306 3.306 0 003.101-3.298v-1.44a3.294 3.294 0 00-3.076-3.293zM5.281 15.953H4.026a2.094 2.094 0 01-2.093-2.092v-1.443c0-1.154.938-2.092 2.093-2.092H5.28v5.627zm8.244 6.837h-1.518a.912.912 0 110-1.825h1.518a.912.912 0 110 1.825zm8.556-8.93a2.094 2.094 0 01-2.093 2.093h-1.255v-5.627h1.255c1.155 0 2.093.938 2.093 2.092v1.443z" fill="#0A3D76"/></g><defs><clipPath id="clip0"><path fill="#fff" d="M0 0h24v24H0z"/></clipPath></defs></svg>
